FINK
CUT[MENSCHEN WOLLT IHR GLUECKLICH SEIN]
REG[Europa, Mitteleuropa, Deutschland]
KEY[F0341  16  G 2/4]
MEL[  5_.65_3_  4_.65__
    4_.21_-7_  1__0__
    2_.43_5_  6_.42__
    4_.21_-7_  1__0__ //] >>
FCT[Jugend - Lied, Moral, Belehrung]
